X:15
T:Sure as the Wind
M:4/4
L:1/4
%Q:1/4=70
K:Eb
%%MIDI program 1       71 bassoon
%
"^1"z C    G  F |"^2"C  >B,  B,/C/    D |"^3"z C   E   F | G4 |
w:   Sure as the    wind my sis-ters and      sure as the rain,
 z  G    c  B |(G/F/) (E/D/)  C     C/D/  | E   > F  (D/E/) (D/B,/)|C4||
w: Sure as the  sun*  does* shine, we will raise our song*   a*   -gain.


